X: 1125
T: Amy's Favourite
R: reel
M: 4/4
K: Gmajor
|:B~G3 cBAc|B~G3 EGDE|~G3A BGBd|egde ~g3z|
b~g3 egde|gedB BAGE|DG~G2 A2Bd|cAFA ~G3z:|
B~d3 g~d3|egde ~G3A|B2Bd e~g3|gedB ~A2GA|
B2Bd e~g3|gede ~g3a|bza ~g2edB|AcBA ~G3A|
B~d3 g~d3|egde ~G3A|B2Bd e~g3|g~a2g a2d'2|
g3a bgag|egdB BAGE|D~G3 A2Bd|cAFA G3z||

